apps/scalable/blogger.svg

<svg height="48" width="48" xmlns="http://www.w3.org/2000/svg" xmlns:xlink="http://www.w3.org/1999/xlink"><linearGradient id="a"><stop offset="0" stop-color="#333538"/><stop offset="1" stop-color="#566069"/></linearGradient><linearGradient id="b" gradientUnits="userSpaceOnUse" x1="400.95444" x2="400.95444" xlink:href="#a" y1="545.22272" y2="517.22266"/><linearGradient gradientUnits="userSpaceOnUse" x1="2.819" x2="11.758417" xlink:href="#a" y1="1044.2982" y2="1044.2982"/><linearGradient id="c" gradientTransform="matrix(.79653672 0 0 .90196074 124.46424 55.301337)" gradientUnits="userSpaceOnUse" x1="343.50577" x2="343.10593" y1="544.4939" y2="512.45056"><stop offset="0" stop-color="#e77301"/><stop offset="1" stop-color="#fc7b01"/></linearGradient><g fill="url(#b)" transform="matrix(1.569970343761 0 0 1.569970343761 -605.097515035022 -810.977878778761)"><rect fill="#000" fill-opacity=".352941" height="29.299917" ry="2.761046" width="29.299917" x="386.05667" y="517.5116"/><rect fill="url(#c)" height="29.299917" ry="2.761046" width="29.299917" x="386.05667" y="517.19312"/><path d="m23.488281 11.976562 23.511719 23.511719v-3.699219l-17.607422-17.607421c-.84926-.84926-1.90795-1.498195-3.126953-1.88086-.753994-.237992-1.207342-.313228-2.777344-.324219zm.007813.015626c-.523004-.004711-1.172095-.000038-1.996094.007812-3.066011.027003-3.066351.026758-3.777344.21875-1.453007.391001-2.983767 1.401815-3.925781 2.507812-1.038991 1.219005-1.806641 2.601629-1.806641 4.265626v8.542968c.079912 3.146456 1.016593 5.198234 2.310547 6.492188l12.972657 12.972656h15.392578c2.401457 0 4.333984-1.932527 4.333984-4.333984v-7.169922z" fill="#000" fill-opacity=".078431" transform="matrix(.63695471 0 0 .63695471 385.41971 516.55618)"/><path d="m400.38951 524.20419c-.33313-.003-.74651 0-1.27136.005-1.95291.0172-1.95291.0172-2.40578.13949-.9255.24905-1.90067.89301-2.50069 1.59748-.66179.77645-1.1497 1.65736-1.1497 2.71725v5.44151c.10446 4.11026 2.50068 5.28481 4.45868 5.38672h6.36955c2.43572-.19682 4.39626-2.46565 4.45868-4.10071v-2.27903c.008-1.88857.008-2.54017-.20637-2.79432-.22421-.26624-.393-.39045-1.07008-.39045-.65925 0-.89556.0299-1.11213-.1344-.27389-.20637-.34332-.3879-.3879-.97772-.14905-2.11023-1.46054-3.79944-3.41854-4.4141-.48026-.15159-.7688-.19937-1.76882-.20637m-2.48094 3.83446h2.80387c.56244 0 1.02041.45288 1.02041 1.02041 0 .56497-.45543.89046-1.02041.89046h-2.80387c-.56498 0-1.0204-.32612-1.0204-.89046 0-.56498.45287-1.02041 1.0204-1.02041m0 5.7326h5.60584c.56498 0 1.0204.32867 1.0204.89046 0 .56498-.45287 1.0204-1.0204 1.0204h-5.60584c-.56498 0-1.0204-.45287-1.0204-1.0204 0-.56243.45287-.89046 1.0204-.89046m0 0" fill="#fff" fill-opacity=".85"/></g></svg>

<?xml version="1.0" encoding="UTF-8" standalone="no"?>
<!-- Created with Inkscape (http://www.inkscape.org/) -->

<svg
   xmlns:osb="http://www.openswatchbook.org/uri/2009/osb"
   xmlns:dc="http://purl.org/dc/elements/1.1/"
   xmlns:cc="http://creativecommons.org/ns#"
   xmlns:rdf="http://www.w3.org/1999/02/22-rdf-syntax-ns#"
   xmlns:svg="http://www.w3.org/2000/svg"
   xmlns="http://www.w3.org/2000/svg"
   xmlns:xlink="http://www.w3.org/1999/xlink"
   xmlns:sodipodi="http://sodipodi.sourceforge.net/DTD/sodipodi-0.dtd"
   xmlns:inkscape="http://www.inkscape.org/namespaces/inkscape"
   width="48"
   height="48"
   id="svg5453"
   version="1.1"
   inkscape:version="0.91 r13725"
   sodipodi:docname="blogger.svg"
   inkscape:export-filename="/home/uri/Iconos de KDE/Breeze/apps/preferences/preferences-desktop-font.png"
   inkscape:export-xdpi="90"
   inkscape:export-ydpi="90">
  <sodipodi:namedview
     id="base"
     pagecolor="#acacac"
     bordercolor="#666666"
     borderopacity="1.0"
     inkscape:pageopacity="0"
     inkscape:pageshadow="2"
     inkscape:zoom="7.9999996"
     inkscape:cx="25.422672"
     inkscape:cy="25.383795"
     inkscape:document-units="px"
     inkscape:current-layer="layer1-7"
     showgrid="false"
     fit-margin-top="0"
     fit-margin-left="0"
     fit-margin-right="0"
     fit-margin-bottom="0"
     inkscape:window-width="1366"
     inkscape:window-height="712"
     inkscape:window-x="0"
     inkscape:window-y="28"
     inkscape:window-maximized="1"
     inkscape:showpageshadow="false"
     borderlayer="true"
     showguides="false"
     inkscape:object-nodes="true">
    <sodipodi:guide
       id="guide4625"
       orientation="32,0"
       position="4.2167969e-05,32.000026" />
    <sodipodi:guide
       id="guide4627"
       orientation="0,31.999969"
       position="4.2167969e-05,2.6367188e-05" />
    <sodipodi:guide
       id="guide4629"
       orientation="-32,0"
       position="32.000012,2.6367188e-05" />
    <sodipodi:guide
       id="guide4631"
       orientation="0,-31.999969"
       position="32.000012,32.000026" />
    <sodipodi:guide
       id="guide4633"
       orientation="28,0"
       position="2.0000422,30.000026" />
    <sodipodi:guide
       id="guide4635"
       orientation="0,27.999969"
       position="2.0000422,2.0000264" />
    <sodipodi:guide
       id="guide4637"
       orientation="-28,0"
       position="30,17" />
    <sodipodi:guide
       id="guide4639"
       orientation="0,-27.999969"
       position="25,30" />
  </sodipodi:namedview>
  <defs
     id="defs5455">
    <linearGradient
       id="linearGradient4316">
      <stop
         id="stop4318"
         style="stop-color:#e3e3e3;stop-opacity:1"
         offset="0" />
      <stop
         id="stop4320"
         style="stop-color:#fcf9f9;stop-opacity:1"
         offset="1" />
    </linearGradient>
    <linearGradient
       id="linearGradient4475"
       inkscape:collect="always">
      <stop
         id="stop4477"
         offset="0"
         style="stop-color:#333538;stop-opacity:1" />
      <stop
         id="stop4479"
         offset="1"
         style="stop-color:#566069;stop-opacity:1" />
    </linearGradient>
    <linearGradient
       id="linearGradient8467">
      <stop
         offset="0"
         style="stop-color:#d3d3d3;stop-opacity:1"
         id="stop8469" />
      <stop
         offset="1"
         style="stop-color:#fcf9f9;stop-opacity:1"
         id="stop8471" />
    </linearGradient>
    <linearGradient
       gradientUnits="userSpaceOnUse"
       y2="517.22266"
       x2="400.95444"
       y1="545.22272"
       x1="400.95444"
       id="linearGradient4481"
       xlink:href="#linearGradient4475"
       inkscape:collect="always" />
    <linearGradient
       gradientUnits="userSpaceOnUse"
       y2="1044.2982"
       x2="11.758417"
       y1="1044.2982"
       x1="2.8190002"
       id="linearGradient6205"
       xlink:href="#linearGradient4475"
       inkscape:collect="always" />
    <linearGradient
       y2="1044.2982"
       x2="11.758417"
       y1="1044.2982"
       x1="2.8190002"
       gradientUnits="userSpaceOnUse"
       id="linearGradient4256"
       xlink:href="#linearGradient4475"
       inkscape:collect="always" />
    <linearGradient
       id="linearGradient4232">
      <stop
         id="stop4234-0"
         offset="0"
         style="stop-color:#3889e9;stop-opacity:1" />
      <stop
         id="stop4236"
         offset="1"
         style="stop-color:#5ea5fb;stop-opacity:1" />
    </linearGradient>
    <style
       type="text/css"
       id="current-color-scheme">.ColorScheme-Text {
        color:#31363b;
      }
      .ColorScheme-Background{
        color:#eff0f1;
      }
      .ColorScheme-ViewText {
        color:#31363b;
      }
      .ColorScheme-ViewBackground{
        color:#fcfcfc;
      }
      .ColorScheme-ViewHover {
        color:#3daee9;
      }
      .ColorScheme-ViewFocus{
        color:#3daee9;
      }
      .ColorScheme-ButtonText {
        color:#31363b;
      }
      .ColorScheme-ButtonBackground{
        color:#eff0f1;
      }
      .ColorScheme-ButtonHover {
        color:#3daee9;
      }
      .ColorScheme-ButtonFocus{
        color:#3daee9;
      }</style>
    <style
       type="text/css"
       id="current-color-scheme-8">.ColorScheme-Text {
        color:#31363b;
      }
      .ColorScheme-Background{
        color:#eff0f1;
      }
      .ColorScheme-ViewText {
        color:#31363b;
      }
      .ColorScheme-ViewBackground{
        color:#fcfcfc;
      }
      .ColorScheme-ViewHover {
        color:#3daee9;
      }
      .ColorScheme-ViewFocus{
        color:#3daee9;
      }
      .ColorScheme-ButtonText {
        color:#31363b;
      }
      .ColorScheme-ButtonBackground{
        color:#eff0f1;
      }
      .ColorScheme-ButtonHover {
        color:#3daee9;
      }
      .ColorScheme-ButtonFocus{
        color:#3daee9;
      }</style>
    <style
       type="text/css"
       id="current-color-scheme-7">.ColorScheme-Text {
        color:#31363b;
      }
      .ColorScheme-Background{
        color:#eff0f1;
      }
      .ColorScheme-ViewText {
        color:#31363b;
      }
      .ColorScheme-ViewBackground{
        color:#fcfcfc;
      }
      .ColorScheme-ViewHover {
        color:#3daee9;
      }
      .ColorScheme-ViewFocus{
        color:#3daee9;
      }
      .ColorScheme-ButtonText {
        color:#31363b;
      }
      .ColorScheme-ButtonBackground{
        color:#eff0f1;
      }
      .ColorScheme-ButtonHover {
        color:#3daee9;
      }
      .ColorScheme-ButtonFocus{
        color:#3daee9;
      }</style>
    <linearGradient
       id="linearGradient4207"
       osb:paint="gradient">
      <stop
         style="stop-color:#3498db;stop-opacity:1;"
         offset="0"
         id="stop3371" />
      <stop
         style="stop-color:#3498db;stop-opacity:0;"
         offset="1"
         id="stop3373" />
    </linearGradient>
    <linearGradient
       id="linearGradient4422">
      <stop
         id="stop4424"
         offset="0"
         style="stop-color:#ff9300;stop-opacity:1" />
      <stop
         id="stop4426"
         offset="1"
         style="stop-color:#ffd702;stop-opacity:1" />
    </linearGradient>
    <linearGradient
       id="linearGradient3764"
       x1="1"
       x2="47"
       gradientUnits="userSpaceOnUse"
       gradientTransform="matrix(0,-1,1,0,-1.5e-6,47.999998)">
      <stop
         stop-color="#ec9b28"
         stop-opacity="1"
         id="stop4279" />
      <stop
         offset="1"
         stop-color="#eea53a"
         stop-opacity="1"
         id="stop4281" />
    </linearGradient>
    <clipPath
       id="clipPath-768031706">
      <g
         transform="translate(0,-1004.3622)"
         id="g4284">
        <path
           d="m -24 13 c 0 1.105 -0.672 2 -1.5 2 -0.828 0 -1.5 -0.895 -1.5 -2 0 -1.105 0.672 -2 1.5 -2 0.828 0 1.5 0.895 1.5 2 z"
           transform="matrix(15.333333,0,0,11.5,414.99999,878.8622)"
           fill="#1890d0"
           id="path4286" />
      </g>
    </clipPath>
    <clipPath
       id="clipPath-775271860">
      <g
         transform="translate(0,-1004.3622)"
         id="g4289">
        <path
           d="m -24 13 c 0 1.105 -0.672 2 -1.5 2 -0.828 0 -1.5 -0.895 -1.5 -2 0 -1.105 0.672 -2 1.5 -2 0.828 0 1.5 0.895 1.5 2 z"
           transform="matrix(15.333333,0,0,11.5,414.99999,878.8622)"
           fill="#1890d0"
           id="path4291" />
      </g>
    </clipPath>
    <linearGradient
       id="linearGradient4422-1">
      <stop
         id="stop4424-7"
         offset="0"
         style="stop-color:#f15f19;stop-opacity:1" />
      <stop
         id="stop4426-2"
         offset="1"
         style="stop-color:#fbb521;stop-opacity:1" />
    </linearGradient>
    <linearGradient
       id="linearGradient3764-4"
       x1="1"
       x2="47"
       gradientUnits="userSpaceOnUse"
       gradientTransform="matrix(0,-1,1,0,-1.5e-6,47.999998)">
      <stop
         stop-color="#e77301"
         stop-opacity="1"
         id="stop4269" />
      <stop
         offset="1"
         stop-color="#fc7b01"
         stop-opacity="1"
         id="stop4271" />
    </linearGradient>
    <clipPath
       id="clipPath-513567425">
      <g
         transform="translate(0,-1004.3622)"
         id="g4274">
        <path
           d="m -24 13 c 0 1.105 -0.672 2 -1.5 2 -0.828 0 -1.5 -0.895 -1.5 -2 0 -1.105 0.672 -2 1.5 -2 0.828 0 1.5 0.895 1.5 2 z"
           transform="matrix(15.333333,0,0,11.5,414.99999,878.8622)"
           fill="#1890d0"
           id="path4276" />
      </g>
    </clipPath>
    <clipPath
       id="clipPath-524116196">
      <g
         transform="translate(0,-1004.3622)"
         id="g4279">
        <path
           d="m -24 13 c 0 1.105 -0.672 2 -1.5 2 -0.828 0 -1.5 -0.895 -1.5 -2 0 -1.105 0.672 -2 1.5 -2 0.828 0 1.5 0.895 1.5 2 z"
           transform="matrix(15.333333,0,0,11.5,414.99999,878.8622)"
           fill="#1890d0"
           id="path4281" />
      </g>
    </clipPath>
    <linearGradient
       gradientTransform="matrix(0.79653672,0,0,0.90196074,124.46424,55.301337)"
       gradientUnits="userSpaceOnUse"
       y2="512.45056"
       x2="343.10593"
       y1="544.4939"
       x1="343.50577"
       id="linearGradient4214"
       xlink:href="#linearGradient3764-4"
       inkscape:collect="always" />
  </defs>
  <metadata
     id="metadata5458">
    <rdf:RDF>
      <cc:Work
         rdf:about="">
        <dc:format>image/svg+xml</dc:format>
        <dc:type
           rdf:resource="http://purl.org/dc/dcmitype/StillImage" />
        <dc:title></dc:title>
      </cc:Work>
    </rdf:RDF>
  </metadata>
  <g
     transform="translate(-384.57143,-499.798)"
     id="layer1"
     inkscape:groupmode="layer"
     inkscape:label="Layer 1">
    <g
       transform="matrix(1.626036,0,0,1.626036,-242.77204,-340.9246)"
       inkscape:label="Layer 1"
       id="layer1-4">
      <g
         id="layer1-6"
         inkscape:label="Layer 1"
         transform="matrix(0.96552004,0,0,0.96552004,13.642627,18.164012)">
        <g
           style="fill:url(#linearGradient4481);fill-opacity:1;stroke:none"
           transform="translate(0.03984275,0.13336787)"
           inkscape:label="Layer 1"
           id="layer1-7">
          <rect
             style="opacity:1;fill:#000000;fill-opacity:0.35294118;stroke:none;stroke-width:1.27390945;stroke-linejoin:miter;stroke-miterlimit:4;stroke-dasharray:none;stroke-opacity:0.07843137"
             id="rect4557"
             width="29.299917"
             height="29.299917"
             x="386.05667"
             y="517.5116"
             ry="2.7610459" />
          <rect
             ry="2.7610459"
             y="517.19312"
             x="386.05667"
             height="29.299917"
             width="29.299917"
             id="rect4206"
             style="opacity:1;fill:url(#linearGradient4214);fill-opacity:1;stroke:none;stroke-width:1.27390945;stroke-linejoin:miter;stroke-miterlimit:4;stroke-dasharray:none;stroke-opacity:0.07843137" />
          <g
             style="fill:url(#linearGradient6205);fill-opacity:1;stroke:none"
             inkscape:label="Layer 1"
             id="layer1-40-8"
             transform="matrix(1.2357237,0,0,1.2357237,423.59897,-754.90195)">
            <g
               transform="matrix(0.90537551,0,0,0.90537551,-365.91682,562.06022)"
               id="layer1-0-5"
               inkscape:label="Layer 1"
               style="fill:url(#linearGradient4256);fill-opacity:1;stroke:none;stroke-opacity:1" />
          </g>
          <path
             style="fill:#000000;fill-opacity:0.07843137;fill-rule:nonzero;stroke:none"
             d="M 23.488281 11.976562 L 47 35.488281 L 47 31.789062 L 29.392578 14.181641 C 28.543318 13.332381 27.484628 12.683446 26.265625 12.300781 C 25.511631 12.062789 25.058283 11.987553 23.488281 11.976562 z M 23.496094 11.992188 C 22.97309 11.987477 22.323999 11.99215 21.5 12 C 18.433989 12.027003 18.433649 12.026758 17.722656 12.21875 C 16.269649 12.609751 14.738889 13.620565 13.796875 14.726562 C 12.757884 15.945567 11.990234 17.328191 11.990234 18.992188 L 11.990234 27.535156 C 12.070146 30.681612 13.006827 32.73339 14.300781 34.027344 L 27.273438 47 L 42.666016 47 C 45.067473 47 47 45.067473 47 42.666016 L 47 35.496094 L 23.496094 11.992188 z "
             transform="matrix(0.63695471,0,0,0.63695471,385.41971,516.55618)"
             id="path4324" />
          <path
             id="path4315-0"
             d="m 400.38951,524.20419 c -0.33313,-0.003 -0.74651,0 -1.27136,0.005 -1.95291,0.0172 -1.95291,0.0172 -2.40578,0.13949 -0.9255,0.24905 -1.90067,0.89301 -2.50069,1.59748 -0.66179,0.77645 -1.1497,1.65736 -1.1497,2.71725 0,0.50256 0,3.53828 0,5.44151 0.10446,4.11026 2.50068,5.28481 4.45868,5.38672 0.41785,0 5.7326,0 6.36955,0 2.43572,-0.19682 4.39626,-2.46565 4.45868,-4.10071 l 0,-2.27903 c 0.008,-1.88857 0.008,-2.54017 -0.20637,-2.79432 -0.22421,-0.26624 -0.393,-0.39045 -1.07008,-0.39045 -0.65925,0 -0.89556,0.0299 -1.11213,-0.1344 -0.27389,-0.20637 -0.34332,-0.3879 -0.3879,-0.97772 -0.14905,-2.11023 -1.46054,-3.79944 -3.41854,-4.4141 -0.48026,-0.15159 -0.7688,-0.19937 -1.76882,-0.20637 m -2.48094,3.83446 2.80387,0 c 0.56244,0 1.02041,0.45288 1.02041,1.02041 0,0.56497 -0.45543,0.89046 -1.02041,0.89046 l -2.80387,0 c -0.56498,0 -1.0204,-0.32612 -1.0204,-0.89046 0,-0.56498 0.45287,-1.02041 1.0204,-1.02041 m 0,5.7326 5.60584,0 c 0.56498,0 1.0204,0.32867 1.0204,0.89046 0,0.56498 -0.45287,1.0204 -1.0204,1.0204 l -5.60584,0 c -0.56498,0 -1.0204,-0.45287 -1.0204,-1.0204 0,-0.56243 0.45287,-0.89046 1.0204,-0.89046 m 0,0"
             inkscape:connector-curvature="0"
             style="fill:#ffffff;fill-opacity:0.85;fill-rule:nonzero;stroke:none" />
        </g>
      </g>
    </g>
  </g>
</svg>
